X:342
T:Här kommer pågar
R:Engelska
Z:Patrik Månsson, 7/7 2008
O:Skåne
B:Omtyckta Skånska allspelslåtar
M:2/4
L:1/16
Q:1/4=100
K:G
|: "G"D2EF G2BB | "D"AGFA "G"G2B2 | D2EF G2B2 | "D"AGFA "G"G4 :|
w:Här kom-mer påg-ar från Mal-mö och från Lom-ma. Här ska ni se på på-gar som kan slåss.
|: "G"BcdB d2dc | "D"A2Bc "G"B2G2 | BcdB d2dc | "D"A2BA "G"G4 :|
w:Ra di da di dam da, di dam da di de-ja. Ra di da di dam da, di dam da di dej
(:musicend:)
Klicka här för att se flera låtar med [[!Ackord]].
(:music:)
